!!!!SEGMENT: pl-kk--kk-i-513--020_haser-august-ferdinand-miserere-tunc-acceptabis-sacrificium-justitiae.krn
!!!id: 17xx:1860
!!!COM: Häser, August Ferdinand
!!!OTL: Miserere - Tunc acceptabis sacrificium justitiae
!!!PDT:
!!!SMS-siglum: PL-Kk
!!!SMS-shelfmark: Kk.I.513
!!!NIFC-rismID: 1001138563
!!!URL-scan: http://repozytorium.nifc.pl/skany/pl-kk-nut--i-513
!!!ONB-nifc:
!!!SMS-variant:
!!!SMS-altvar:
**kern	**kern	**kern	**text	**dynam	**kern	**text	**dynam	**kern	**text	**dynam	**kern	**text
*part6	*part5	*part4	*part4	*part4	*part3	*part3	*part3	*part2	*part2	*part2	*part1	*part1
*	*	*group1	*	*	*group1	*	*	*group1	*	*	*group1	*
*staff6	*staff5	*staff4	*staff4	*	*staff3	*staff3	*	*staff2	*staff2	*	*staff1	*staff1
*	*I"[Organo]	*I"Basso.	*	*	*I"Tenore.	*	*	*I"Alto	*	*	*I"Soprano.	*
*	*I'[org]	*I'B	*	*	*I'T	*	*	*I'A	*	*	*I'S	*
*clefF4	*clefG2	*clefF4	*	*	*clefC4	*	*	*clefG2	*	*	*clefG2	*
*k[]	*k[]	*k[]	*	*	*k[]	*	*	*k[]	*	*	*k[]	*
*M4/4	*M4/4	*M4/4	*	*	*M4/4	*	*	*M4/4	*	*	*M4/4	*
*met(c)	*met(c)	*met(c)	*	*	*met(c)	*	*	*met(c)	*	*	*met(c)	*
=1	=1	=1	=1	=1	=1	=1	=1	=1	=1	=1	=1	=1
*all\right	*all\right	*all\right	*	*	*all\right	*	*	*all\right	*	*	*all\right	*
!	!	!LO:TX:b:i:t=Maestoso.	!	!	!LO:TX:b:Bi:t=Maestoso	!	!	!	!	!	!LO:TX:t=P:problem:t. 1 zapisany jako przedtakt	!
!	!	!LO:TX:t=P:problem:t. 1 zapisany jako przedtakt	!	!	!LO:TX:t=P:problem:t. 1 zapisany jako przedtakt	!	!	!LO:TX:t=P:problem:t. 1 zapisany jako przedtakt	!	!	!LO:TX:b:Bi:t=Maestoso.	!
!	!LO:TX:a:Bi:t=Nr. 20.	!LO:TX:a:Bi:t=N 20.	!	!	!LO:TX:a:Bi:t=N 20	!	!	!LO:TX:a:Bi:t=N 20.	!	!	!LO:TX:a:Bi:t=N 20.	!
2r	2r	4ryy	.	.	4ryy	.	.	4ryy	.	.	4ryy	.
.	.	4ryy	.	.	4ryy	.	.	4ryy	.	.	4ryy	.
8r	8r	8r	.	.	8r	.	.	8r	.	.	8r	.
!	!	!	!	!LO:DY:a	!	!	!LO:DY:a:	!	!	!LO:DY:aproblem:na pięciolinii	!	!
4.G 4.GG\	4.g/	8G\	Tunc	f	8G/	Tunc	f	8g/	Tunc	f	8g/	Tunc
.	.	8G\	ac-	.	8G/	ac-	.	8g/	ac-	.	8g/	ac-
.	.	8G\	-cep-	.	8G/	-cep-	.	8g/	-ce-	.	8g/	-cep-
=2	=2	=2	=2	=2	=2	=2	=2	=2	=2	=2	=2	=2
*	*	*2\right	*	*	*2\right	*	*	*	*	*	*2\right	*
!	!	!	!	!	!	!	!	!LO:SIC:v:l:s=pta	!	!	!	!
1c 1C	1ee 1g	2c\	-ta-	.	2c\	-ta-	.	2g/	-pla-	.	2ee\	-ta-
.	.	4c\	-bis	.	4c\	-bis	.	4g/	-bis	.	4ee\	-bis
.	.	8c\	ſa-	.	8c\	ſa-	.	8g/	sa-	.	8ee\	sa-
.	.	8c\	-cri-	.	8c\	-cri-	.	8g/	-cri-	.	8ee\	-cri-
=3	=3	=3	=3	=3	=3	=3	=3	=3	=3	=3	=3	=3
1c 1A	1ee 1a	4.A\	-fi-	.	4.c\	-fi-	.	4.a/	-fi-	.	4.ee\	-fi-
.	.	8A\	-ci-	.	8c\	-ci-	.	8a/	-ci-	.	8ee\	-ci-
.	.	4A\	-um	.	4c\	-um	.	4a/	-um	.	4ee\	-um
.	.	4A\	Ju-	.	4c\	Ju-	.	4a/	Ju-	.	4ee\	ju-
=4	=4	=4	=4	=4	=4	=4	=4	=4	=4	=4	=4	=4
*^	*^	*	*	*	*	*	*	*	*	*	*	*
*	*	*	*2\right	*	*	*	*	*	*	*	*	*	*	*
2c/	1E	1ee	2a\	2.E\	-ſti-	.	2c\	-sti-	.	(2a/	-sti-	.	2.ee\	-sti-
4B/	.	.	4g#X\	.	.	.	4B\	.	.	4g#X/)	.	.	.	.
4A/	.	.	4f#X\	4E\	-ti-	.	8.A\	.	.	4f#X/	-ti-	.	4ee\	-ti-
.	.	.	.	.	.	.	16A\	-ti-	.	.	.	.	.	.
*v	*v	*	*	*	*	*	*	*	*	*	*	*	*	*
*	*v	*v	*	*	*	*	*	*	*	*	*	*	*
=5	=5	=5	=5	=5	=5	=5	=5	=5	=5	=5	=5	=5
*2\right	*	*	*	*	*	*	*	*	*	*	*	*
!	!	!	!	!	!	!	!	!LO:SIC:v:l:s=ae.	!	!	!LO:SIC:v:l:s=ae,	!
2B 2E\	2ee 2g#X/	2E\	-ae.	.	2B\	-ae	.	2g#X/	-e.	.	2ee\	-oe,
2r	2r	2r	.	.	2r	.	.	2r	.	.	2r	.
!LO:LB:g=original	!LO:LB:g=original	!	!	!	!	!	!	!LO:LB:g=original	!	!	!LO:LB:g=original	!
=6||	=6||	=6||	=6||	=6||	=6||	=6||	=6||	=6||	=6||	=6||	=6||	=6||
*M3/4	*M3/4	*M3/4	*	*	*M3/4	*	*	*M3/4	*	*	*M3/4	*
4r	4r	4r	.	.	4r	.	.	4r	.	.	4r	.
8r	8r	8r	.	.	8r	.	.	8r	.	.	8r	.
!	!	!	!	!	!	!	!LO:DY:a	!	!	!	!	!
4.c 4.C\	4.ee 4.g\	8C/	O-	.	8c\	O-	mf	8g/	O-	.	8ee\	O-
.	.	8C/	-bla-	.	8c\	-bla-	.	8g/	-bla-	.	8ee\	-bla-
!	!	!	!	!	!	!	!	!LO:SIC:v:l:s=ti	!	!	!	!
.	.	8C/	-ti-	.	8c\	-ti-	.	8g/	-li-	.	8ee\	-ti-
!	!	!LO:LB:g=original	!	!	!LO:LB:g=original	!	!	!	!	!	!	!
=7	=7	=7	=7	=7	=7	=7	=7	=7	=7	=7	=7	=7
*^	*	*	*	*	*	*	*	*	*	*	*	*
4c/	4F\	4ff 4a\	4F\	-o-	.	4c\	-o-	.	4a/	-o-	.	4ff\	-o-
8c/	8C\	8ee 8g\	8C/	-nes	.	8c\	-nes	.	8g/	-nes	.	8ee\	-nes
!	!	!	!	!	!	!LO:SIC:v:v:l:s=et	!	!	!	!	!	!	!
4.A/	4.AA\	4.cc 4.e\	8AA/	et	.	8e\	e	.	8a/	et	.	8cc\	et
.	.	.	8AA/	ho-	.	8e\	ho-	.	8a/	ho-	.	8cc\	ho-
.	.	.	8AA/	-lo-	.	8e\	-lo-	.	8a/	-lo-	.	8cc\	-lo-
*v	*v	*	*	*	*	*	*	*	*	*	*	*	*
=8	=8	=8	=8	=8	=8	=8	=8	=8	=8	=8	=8	=8
4D/	4dd 4a 4f/	4D/	-cau-	.	4f\	-caus-	.	4a/	-cau-	.	4dd\	-cau-
2A 2AA\	2cc 2e/	4AA/	-sta	.	4e\	-ta	.	4a/	-sta	.	4cc\	-sta
.	.	8A\	tunc	.	8e\	tunc	.	8a/	tunc	.	8cc\	tunc
!	!	!LO:SIC:v:l:s=im-	!	!	!	!	!	!	!	!	!	!
.	.	8A\	mi-	.	8e\	im-	.	8a/	im-	.	8cc\	im-
=9	=9	=9	=9	=9	=9	=9	=9	=9	=9	=9	=9	=9
*	*^	*	*	*	*	*	*	*	*	*	*	*
!	!	!	!LO:SIC:v:l:s=po	!	!	!	!	!	!	!	!	!	!
2.d#X 2.B\	[4.b/	4.f#X\	4B\	-pe-	.	4d#X\	-po-	.	4f#X/	-po-	.	4b\	-po-
!	!	!	!	!	!	!LO:SIC:v:l:s=nent	!	!	!	!	!	!	!
.	.	.	8B\	-nent	.	8d#\	-nes	.	8f#/	-nent	.	8b\	-nent
.	4.b] 4.a/	8ryy	8B\	su-	.	8d#\	su-	.	8a/	su-	.	8b\	su-
.	.	4ryy	8B\	-per	.	8d#\	-per	.	8a/	-per	.	8b\	-per
.	.	.	8B\	al-	.	8d#\	al-	.	8a/	al-	.	8b\	al-
=10	=10	=10	=10	=10	=10	=10	=10	=10	=10	=10	=10	=10	=10
2e 2c\	2ee/	8.g\L	8.c\	-ta-	.	8.e\	-ta-	.	8.g/	-ta-	.	8.ee\	-ta-
.	.	16g#X\Jk	16c\	-re	.	16e\	-re	.	16g#X/	-re	.	16ee\	-re
.	.	4a\	4c\	tu-	.	4f\	tu-	.	4a/	tu-	.	4ee\	tu-
4g 4c#X\	4ryy	4a#X\	4c#X\	-um	.	4g\	-um	.	4a#X/	-um	.	4ee\	-um
!	!	!	!	!	!	!	!	!	!LO:LB:g=original	!	!	!LO:LB:g=original	!
=11	=11	=11	=11	=11	=11	=11	=11	=11	=11	=11	=11	=11	=11
!	!	!	!	!	!LO:DY:b:rj:problem:na pięciolinii	!	!	!LO:DY:a:rj	!	!	!LO:DY:a:problem:na pięciolinii	!	!
2d\	2.dd/	4b 4g\	2d\	vi-	ff	2g\	vi-	ff	(>4b/	vi-	p	2dd\	vi-
.	.	4a 4g\	.	.	.	.	.	.	4a/)	.	.	.	.
!	!LO:SIC:v:n=2:s=4f#	!	!	!	!	!	!	!	!	!	!	!	!
!	!LO:TX:t=P:problem:pojedyncza kreska taktowa	!	!	!	!	!	!	!	!	!	!	!	!
4D\	.	4a 4f\	4D/	-tu-	.	4f#X\	-tu-	.	4a/	-tu-	.	4dd\	-tu-
*	*v	*v	*	*	*	*	*	*	*	*	*	*	*
!LO:LB:g=original	!LO:LB:g=original	!	!	!	!	!	!	!	!	!	!	!
=12||	=12||	=12||	=12||	=12||	=12||	=12||	=12||	=12||	=12||	=12||	=12||	=12||
*	*	*M4/4	*	*	*M4/4	*	*	*M4/4	*	*	*M4/4	*
*	*	*met(c)	*	*	*met(c)	*	*	*met(c)	*	*	*met(c)	*
!	!LO:TX:t=P:problem:brak zmiany metrum, dopisane ołówkiem, także dopisany dźwięk B	!	!	!	!	!	!	!	!	!	!	!
2G\	2dd 2g\	2G\	-los	.	2g\	-los	.	2b/	-los	.	2dd\	-los,
8r	8r	8r	.	.	8r	.	.	8r	.	.	8r	.
!	!	!	!	!LO:DY:a	!	!	!LO:DY:a:problem:na pięciolinii	!	!	!	!	!
8G\	8g/	8G\	tunc	p	8G/	tunc	p	8g/	tunc	.	8g/	tunc
!	!LO:TX:t=P:problem:podwójna kreska taktowa	!	!	!	!	!	!	!	!	!	!	!
4ryy	4ryy	8G\	ac-	.	8G/	ac-	.	8g/	ac-	.	8g/	ac-
!	!	!	!	!	!LO:SIC:v:l:s=-cep-	!	!	!	!	!	!	!
.	.	8G\	-cep-	.	8G/	-ce-	.	8g/	-cep-	.	8g/	-cep-
!	!	!LO:LB:g=original	!	!	!LO:LB:g=original	!	!	!	!	!	!	!
=13	=13	=13	=13	=13	=13	=13	=13	=13	=13	=13	=13	=13
*M4\4	*M4\4	*	*	*	*	*	*	*	*	*	*	*
*met(c)	*met(c)	*	*	*	*	*	*	*	*	*	*	*
*	*^	*	*	*	*	*	*	*	*	*	*	*
!LO:TX:t=P:problem:tu zmiana metrum	!LO:TX:t=P:problem:tu zmiana metrum	!	!	!	!	!	!	!	!	!	!	!	!
4d 4F\	4b/	1g	4F\	-ta-	.	4d\	-ta-	.	4g/	-ta-	.	4b\	-ta-
4c 4E\	4cc/	.	4E\	-bis	.	4c\	-bis	.	4g/	-bis	.	4cc\	-bis
4B 4D\	4dd/	.	4D\	sa-	.	4B\	sa-	.	4g/	sa-	.	4dd\	sa-
4c 4C\	4ee/	.	4C\	-cri-	.	4c\	-cri-	.	4g/	-cri-	.	4ee\	-cri-
=14	=14	=14	=14	=14	=14	=14	=14	=14	=14	=14	=14	=14	=14
!	!	!	!	!	!LO:DY:a:rj:problem:na pięciolinii	!	!	!	!	!	!	!	!
2d 2B\	2ff/	2.g\	4.BB/	-fi-	ff	4.d\	-fi-	.	4.g/	-fi-	.	4.ff\	-fi-
.	.	.	8BB/	-ci-	.	(8d\	-ci-	.	8g/	-ci-	.	8ff\	-ci-
!	!	!	!	!	!	!	!	!	!	!	!	!LO:TX:b:t=e	!
4c 4C\	4ee/	.	4C/	-um	.	8c\)	.	.	4g/	-um	.	4gg 4ee\	-um
.	.	.	.	.	.	8c\	-um	.	.	.	.	.	.
*	*	*	*	*	*	*	*ij	*	*	*	*	*	*
4G\	4g/	4g\	8G\	ſa-	.	8G/	sa-	.	8g/	sa-	.	8g/	sa-
.	.	.	8G\	-cri-	.	8G/	-cri-	.	8g/	-cri-	.	8g/	-cri-
=15	=15	=15	=15	=15	=15	=15	=15	=15	=15	=15	=15	=15	=15
4d 4F\	4b/	1g	4F\	-fi-	.	4d\	-fi-	.	4g/	-fi-	.	4b\	-fi-
4c 4E\	4cc/	.	4E\	-ci-	.	4c\	-ci-	.	4g/	-ci-	.	4cc\	-ci-
4B 4D\	4dd/	.	4D\	-um	.	4B\	-um	.	4g/	-um	.	4dd\	-um
*	*	*	*	*	*	*	*Xij	*	*	*	*	*	*
4c 4C\	4ee/	.	4C\	ju-	.	4c\	jus-	.	4g/	ju-	.	4ee\	ju-
!	!	!	!	!	!	!	!	!	!LO:LB:g=original	!	!	!	!
=16	=16	=16	=16	=16	=16	=16	=16	=16	=16	=16	=16	=16	=16
!	!	!	!	!	!LO:DY:a:problem:na pięciolinii	!	!	!LO:DY:b:rj:problem:na pięciolinii	!	!	!	!	!
2d 2B\	2ff/	1g	4.BB/	-sti-	f	4.d\	-ti-	ff	4.g/	-sti-	.	4.ff\	-sti-
.	.	.	8BB/	-ti-	.	8d\	-ti-	.	8g/	-ti-	.	8ff\	-ti-
!	!	!	!	!	!	!	!	!	!LO:SIC:v:l:s=ae	!	!	!LO:SIC:v:l:s=ae	!
2c 2C\	2ee/	.	2C/	-ae	.	2c\	-ae	.	2g/	-e	.	2ee\	-e
*	*v	*v	*	*	*	*	*	*	*	*	*	*	*
!LO:LB:g=original	!LO:LB:g=original	!	!	!	!	!	!	!	!	!	!LO:LB:g=original	!
=17||	=17||	=17||	=17||	=17||	=17||	=17||	=17||	=17||	=17||	=17||	=17||	=17||
*M3/4	*M3/4	*M3/4	*	*	*M3/4	*	*	*M3/4	*	*	*M3/4	*
4r	4r	4r	.	.	4r	.	mf	4r	.	.	4r	.
8r	8r	8r	.	.	8r	.	.	8r	.	.	8r	.
4.G 4.C\	4.ee 4.g\	8C/	O-	.	8c\	O-	m.	8g/	O-	.	8ee\	o-
.	.	8C/	-bla-	.	8c\	-bla-	.	8g/	-bla-	.	8ee\	-bla-
.	.	8C/	-ti-	.	8c\	-ti-	.	8g/	-ti-	.	8ee\	-ti-
=18	=18	=18	=18	=18	=18	=18	=18	=18	=18	=18	=18	=18
4c 4F\	4ff 4a\	4F\	-o-	.	4c\	-o-	.	4a/	-o-	.	4ff\	-o-
8c 8C\	8ee 8g\	8C/	-nes	.	8c\	-nes	.	8g/	-nes	.	8ee\	-nes
4.A 4.AA\	4.cc 4.e\	8AA/	et	.	8e\	et	.	8a/	et	.	8cc\	et
.	.	8AA/	ho-	.	8e\	ho-	.	8a/	ho-	.	8cc\	ho-
.	.	8AA/	-lo-	.	8e\	-lo-	.	8a/	-lo-	.	8cc\	-lo-
!	!	!	!	!	!LO:LB:g=original	!	!	!	!	!	!	!
=19	=19	=19	=19	=19	=19	=19	=19	=19	=19	=19	=19	=19
*	*^	*	*	*	*	*	*	*	*	*	*	*
4D/	4cc 4a/	4f\	4D\	-cau-	.	4f\	-cau-	.	4a/	-cau-	.	4dd\	-cau-
[4AA/	2cc/	2e\	4AA/	-sta	.	4e\	-sta	.	4a/	-sta	.	4cc\	-sta
4A 4AA/]	.	.	8A\	tunc	.	8c\	tunc	.	8e/	tunc	.	8cc\	tunc
.	.	.	8A\	im-	.	8c\	im-	.	8e/	im-	.	8cc\	im-
*	*v	*v	*	*	*	*	*	*	*	*	*	*	*
!	!	!LO:LB:g=original	!	!	!	!	!	!	!	!	!	!
=20||	=20||	=20||	=20||	=20||	=20||	=20||	=20||	=20||	=20||	=20||	=20||	=20||
*M4/4	*M4/4	*M4/4	*	*	*M4/4	*	*	*M4/4	*	*	*M4/4	*
*met(c)	*met(c)	*met(c)	*	*	*met(c)	*	*	*met(c)	*	*	*met(c)	*
!	!	!	!	!	!LO:TX:a:i:t=piu largo	!	!	!LO:TX:a:i:t=Pui moſso	!	!	!	!
[2c 2F\	[2dd 2a/	2F\	-po-	.	2c\	-po-	.	2a/	-po-	.	2dd\	-po-
2c] 2G\	2dd] 2g/	2G\	-nent	.	2c\	-nent	.	2g/	-nent	.	2dd\	-nent
!	!	!	!	!	!	!	!	!LO:LB:g=original	!	!	!	!
=21	=21	=21	=21	=21	=21	=21	=21	=21	=21	=21	=21	=21
*	*^	*	*	*	*	*	*	*	*	*	*	*
2c 2A-X\	[2dd/	2f\	2A-X\	su-	.	2c\	su-	.	2.f/	su-	.	2dd\	su-
2An\	2dd/]	2f#X\	4An\	-per	.	4c\	-per	.	.	.	.	4dd\	-per
.	.	.	4A\	al-	.	4c\	al-	.	8f#X/	-per	.	4dd\	al-
.	.	.	.	.	.	.	.	.	8f#/	al-	.	.	.
!LO:LB:g=original	!LO:LB:g=original	!	!	!	!	!	!	!	!	!	!	!LO:LB:g=original	!
=22	=22	=22	=22	=22	=22	=22	=22	=22	=22	=22	=22	=22	=22
!	!	!	!	!	!	!	!	!LO:DY:a	!	!	!	!	!
2e 2G\	2gg/	4.g\	4.G\	-ta-	.	4.e\	-ta-	ff	4.g/	-ta-	.	4.gg\	-ta-
.	.	8cc\	8G\	-re	.	8e\	-re	.	8cc\	-re	.	8gg\	-re
4c\	4ee 4cc/	4g\	4c\	tu-	.	4g\	tu-	.	4cc\	tu-	.	4ee\	tu-
!	!	!	!	!	!	!LO:SIC:v:l:s=um	!	!	!	!	!	!	!
4e\	4cc/	4g\	4e\	-um	.	4g\	-am	.	4cc\	-um	.	4cc\	-um
=23	=23	=23	=23	=23	=23	=23	=23	=23	=23	=23	=23	=23	=23
2.e 2.G\	1dd	4cc\	2.G\	vi-	.	2.g\	vi-	.	4cc\	vi-	.	2.dd\	vi-
.	.	8b\L	.	.	.	.	.	.	8b/L	.	.	.	.
.	.	8a\J	.	.	.	.	.	.	8a/J	.	.	.	.
.	.	2b\	.	.	.	.	.	.	2b/	-tu-	.	.	.
4f 4G\	.	.	4G\	-tu-	.	4f\	-tu-	.	.	.	.	4dd\	-tu-
*	*v	*v	*	*	*	*	*	*	*	*	*	*	*
=24	=24	=24	=24	=24	=24	=24	=24	=24	=24	=24	=24	=24
!	!	!LO:TX:b:i:t=Fine	!	!	!	!	!	!	!	!	!LO:TX:b:B:t=Fine.	!
!	!	!LO:TX:b:t=Kasper Molęcki	!	!	!	!	!	!LO:TX:b:Bi:t=Fine.	!	!	!LO:TX:b:t=Kasper Molęcki	!
1c 1G 1C	1cc 1g 1e	1c 1C	-los.	.	2e\	-los.	.	1g	-los.	.	1cc	-los.
!	!	!	!	!	!LO:TX:b:B:t=Fine.	!	!	!	!	!	!	!
.	.	.	.	.	2r	.	.	.	.	.	.	.
==	==	==	==	==	==	==	==	==	==	==	==	==
*-	*-	*-	*-	*-	*-	*-	*-	*-	*-	*-	*-	*-
!!!system-decoration: [g1]{(s5,s6)}
!!!RDF**kern: > = above
!!!ENC: Katarzyna Serwa
!!!END: 2020-01-03
!!!ENC: Marta Lawrence
!!!END: 2021-01-04
